X: 16
T: Kinnegad Slashers
%R: jig
B: Cahusac "Annual Collection of Twenty-four favorite Country Dances For the Year 1809", p.8 #2
F: http://imslp.org/wiki/24_Country_Dances_for_the_Year_1809_%28Various%29
F: http://javanese.imslp.info/files/imglnks/usimg/0/0d/IMSLP351863-PMLP71785-wm_cahusac_24_dances_1809.pdf
Z: 2015 by John Chambers  <jc:trillian.mit.edu>
N: Added rest "pickup" to 2nd strain to fix the rhythm.
M: 6/8
L: 1/8
K: D
% - - - - - - - - - - - - - - - - - - - - - - - - - - - - -
A |\
d>AF d>AF | ABA ABc | d>AF d>AF | Eee efg |\
d>AF d>AF | ABA A2g | fed  c>BA | Add d2 :|
|: z |\
dfa afd | efe e2f | dfa  afd  | fga afd |\
dfa afd | efe e2g | f>ed c>BA | Add d2 :|
% - - - - - - - - - - Dance description - - - - - - - - - -
%%begintext align
%% Whole figure at top, Down the
%% mid: up again, Allemande.
%%endtext

%%sep 1 1 500
%%sep 1 1 500
